svgs/samsung_calculator.svg

<svg width="24" height="24" viewBox="0 0 24 24" fill="none" xmlns="http://www.w3.org/2000/svg">
<path d="M6.48877 2C5.93786 2 5.49126 2.44615 5.49126 2.99651V5.48778H2.9975C2.4466 5.48778 2 5.93393 2 6.48428C2 7.03464 2.4466 7.48079 2.9975 7.48079H5.49126V9.97206C5.49126 10.5224 5.93786 10.9686 6.48877 10.9686C7.03967 10.9686 7.48627 10.5224 7.48627 9.97206V7.48079H9.98003C10.5309 7.48079 10.9775 7.03464 10.9775 6.48428C10.9775 5.93393 10.5309 5.48778 9.98003 5.48778H7.48627V2.99651C7.48627 2.44615 7.03967 2 6.48877 2Z" fill="#FFF1C0"/>
<path d="M2.76029 13.949C3.14298 13.5531 3.77447 13.5421 4.17076 13.9244L6.49925 16.1708L8.64692 13.949C9.02961 13.5531 9.6611 13.5421 10.0574 13.9244C10.4537 14.3067 10.4647 14.9376 10.082 15.3335L7.93434 17.5552L10.1927 19.734C10.589 20.1163 10.6 20.7471 10.2174 21.143C9.83466 21.5389 9.20317 21.5499 8.80688 21.1676L6.54849 18.9889L4.3307 21.2832C3.94801 21.6791 3.31652 21.6901 2.92023 21.3078C2.52394 20.9255 2.51292 20.2946 2.89561 19.8987L5.1134 17.6044L2.78491 15.3581C2.38862 14.9758 2.3776 14.3449 2.76029 13.949Z" fill="#FFF1C0"/>
<path d="M13.0225 6.25529C13.0225 5.70493 13.4691 5.25878 14.02 5.25878H21.0025C21.5534 5.25878 22 5.70493 22 6.25529C22 6.80564 21.5534 7.2518 21.0025 7.2518H14.02C13.4691 7.2518 13.0225 6.80564 13.0225 6.25529Z" fill="#FFF1C0"/>
<path d="M14.02 16.2872C13.4691 16.2872 13.0225 16.7334 13.0225 17.2837C13.0225 17.8341 13.4691 18.2802 14.02 18.2802H21.0025C21.5534 18.2802 22 17.8341 22 17.2837C22 16.7334 21.5534 16.2872 21.0025 16.2872H14.02Z" fill="#FFF1C0"/>
<path d="M18.8211 13.876C18.8211 14.5987 18.2347 15.1846 17.5112 15.1846C16.7878 15.1846 16.2013 14.5987 16.2013 13.876C16.2013 13.1533 16.7878 12.5674 17.5112 12.5674C18.2347 12.5674 18.8211 13.1533 18.8211 13.876Z" fill="#FFF1C0"/>
<path d="M17.5112 22C18.2347 22 18.8211 21.4141 18.8211 20.6914C18.8211 19.9687 18.2347 19.3828 17.5112 19.3828C16.7878 19.3828 16.2013 19.9687 16.2013 20.6914C16.2013 21.4141 16.7878 22 17.5112 22Z" fill="#FFF1C0"/>
</svg>

<svg xmlns="http://www.w3.org/2000/svg" width="24" height="24" fill="none" viewBox="0 0 24 24"><path fill="#FFF1C0" d="M6.489 2a.997.997 0 0 0-.998.997v2.49H2.998a.997.997 0 1 0 0 1.994H5.49v2.491a.997.997 0 0 0 1.995 0V7.481H9.98a.997.997 0 1 0 0-1.993H7.486V2.997A.997.997 0 0 0 6.49 2M2.76 13.949a.998.998 0 0 1 1.41-.025l2.33 2.247 2.147-2.222a.998.998 0 0 1 1.435 1.385l-2.148 2.221 2.259 2.179a.996.996 0 1 1-1.386 1.434l-2.259-2.18-2.217 2.295A.998.998 0 0 1 2.896 19.9l2.217-2.295-2.328-2.246a.996.996 0 0 1-.025-1.409m10.263-7.695c0-.55.446-.996.997-.996h6.983a.997.997 0 1 1 0 1.993H14.02a.997.997 0 0 1-.997-.997m.997 10.032a.997.997 0 1 0 0 1.993h6.983a.997.997 0 1 0 0-1.993zm4.801-2.411a1.31 1.31 0 1 1-2.618-.001 1.31 1.31 0 0 1 2.618.001M17.511 22a1.31 1.31 0 1 0 .002-2.618A1.31 1.31 0 0 0 17.51 22"/></svg>
